; generated by PrusaSlicer 2.4.1+win64 on 2022-03-30 at 19:04:08 UTC


;
;

;
;
; 

; external perimeters extrusion width = 0.45mm
; perimeters extrusion width = 0.45mm
; infill extrusion width = 0.45mm
; solid infill extrusion width = 0.45mm
; top infill extrusion width = 0.40mm
; first layer extrusion width = 0.42mm

M73 P0 R16
M201 X2500 Y2500 Z400 E5000 ; sets maximum accelerations, mm/sec^2
M203 X180 Y180 Z12 E80 ; sets maximum feedrates, mm / sec
M204 P1250 R1250 T2500 ; sets acceleration (P, T) and retract acceleration (R), mm/sec^2
M205 X8.00 Y8.00 Z2.00 E10.00 ; sets the jerk limits, mm/sec
M205 S0 T0 ; sets the minimum extruding and travel feed rate, mm/sec
M107
;TYPE:Custom
M862.3 P "MINI" ; printer model check
G90 ; use absolute coordinates
M83 ; extruder relative mode
M104 S170 ; set extruder temp for bed leveling
M140 S60 ; set bed temp
M109 R170 ; wait for bed leveling temp
M190 S60 ; wait for bed temp
M204 T1250 ; set travel acceleration
G28 ; home all without mesh bed level
G29 ; mesh bed leveling 
M204 T2500 ; restore travel acceleration
M104 S215 ; set extruder temp
G92 E0
G1 Y-2 X179 F2400
G1 Z3 F720
M109 S215 ; wait for extruder temp

; intro line
G1 X170 F1000
G1 Z0.2 F720
G1 X110 E8 F900
G1 X40 E10 F700
G92 E0

M221 S95 ; set flow
G21 ; set units to millimeters
G90 ; use absolute coordinates
M83 ; use relative distances for extrusion
M900 K0.2 ; Filament gcode LA 1.5
; ; Filament gcode LA 1.0
M107
;LAYER_CHANGE
;Z:0.2
;HEIGHT:0.2
;BEFORE_LAYER_CHANGE
G92 E0.0
;0.2


G1 E-3.2 F4200
M73 P1 R16
G1 Z.2 F720
;AFTER_LAYER_CHANGE
;0.2
G1 Z.4
G1 X67.351 Y71.359 F9000
G1 Z.2 F720
G1 E3.2 F2400
M204 P800
;TYPE:Skirt/Brim
;WIDTH:0.42
G1 F1200
G1 X67.995 Y70.952 E.0239
G1 X68.701 Y70.663 E.0239
G1 X70 Y70.461 E.04122
G1 X110.207 Y70.471 E1.26067
G1 X110.962 Y70.573 E.0239
G1 X111.689 Y70.805 E.0239
G1 X112.363 Y71.159 E.0239
G1 X112.966 Y71.626 E.0239
G1 X113.679 Y72.475 E.03477
G1 X114.034 Y73.15 E.0239
G1 X114.266 Y73.876 E.0239
G1 X114.368 Y74.631 E.0239
G1 X114.368 Y101.746 E.85015
G1 X114.26 Y102.522 E.02457
M73 P2 R16
G1 X113.886 Y103.543 E.03409
G1 X113.479 Y104.188 E.0239
G1 X112.649 Y105.018 E.03681
G1 X112.005 Y105.425 E.0239
G1 X111.299 Y105.714 E.0239
G1 X110 Y105.916 E.04123
G1 X70 Y105.916 E1.25417
G1 X69.038 Y105.804 E.03038
G1 X67.995 Y105.425 E.03478
G1 X67.351 Y105.018 E.0239
G1 X66.521 Y104.188 E.03681
G1 X66.114 Y103.543 E.0239
G1 X65.825 Y102.838 E.0239
G1 X65.623 Y101.539 E.04122
G1 X65.623 Y74.839 E.83716
G1 X65.734 Y73.876 E.03038
G1 X66.114 Y72.834 E.03477
G1 X66.521 Y72.19 E.0239
G1 X67.309 Y71.402 E.03493
M204 P1000
; printing object ESP32 Cam Lid id:0 copy 0
G1 E-2.24 F4200
;WIPE_START
G1 F7200
G1 X67.995 Y70.952 E-.45492
G1 X68.701 Y70.663 E-.42243
G1 X68.763 Y70.654 E-.03465
;WIPE_END
G1 E-.048 F4200
G1 Z.4 F720
G1 X88.324 Y86.151 F9000
G1 Z.2 F720
G1 E3.2 F2400
M204 P800
;TYPE:Perimeter
G1 F1200
G1 X90.597 Y86.151 E.07128
G1 X89.46 Y88.12 E.07128
G1 X88.354 Y86.203 E.0694
M204 P1000
G1 E-2.24 F4200
;WIPE_START
G1 F7200
G1 X89.999 Y86.165 E-.912
;WIPE_END
G1 E-.048 F4200
G1 Z.4 F720
G1 X88.324 Y91.072 F9000
G1 Z.2 F720
G1 E3.2 F2400
M204 P800
G1 F1200
G1 X89.46 Y89.103 E.07128
G1 X90.597 Y91.072 E.07128
G1 X88.384 Y91.072 E.0694
M204 P1000
G1 E-2.24 F4200
;WIPE_START
G1 F7200
G1 X89.173 Y89.628 E-.912
;WIPE_END
G1 E-.048 F4200
G1 Z.4 F720
G1 X91.449 Y91.563 F9000
G1 Z.2 F720
G1 E3.2 F2400
M204 P800
G1 F1200
G1 X93.722 Y91.563 E.07128
G1 X92.585 Y93.532 E.07128
G1 X91.479 Y91.615 E.0694
M204 P1000
G1 E-2.24 F4200
;WIPE_START
G1 F7200
G1 X93.124 Y91.577 E-.912
;WIPE_END
G1 E-.048 F4200
G1 Z.4 F720
G1 X96.847 Y91.072 F9000
G1 Z.2 F720
G1 E3.2 F2400
M204 P800
G1 F1200
G1 X94.574 Y91.072 E.07128
G1 X95.71 Y89.103 E.07128
G1 X96.817 Y91.02 E.0694
M204 P1000
G1 E-2.24 F4200
;WIPE_START
G1 F7200
G1 X95.172 Y91.058 E-.912
;WIPE_END
G1 E-.048 F4200
G1 Z.4 F720
G1 X96.847 Y86.151 F9000
G1 Z.2 F720
G1 E3.2 F2400
M204 P800
G1 F1200
G1 X95.71 Y88.12 E.07128
G1 X94.574 Y86.151 E.07128
G1 X96.787 Y86.151 E.0694
M204 P1000
G1 E-2.24 F4200
;WIPE_START
G1 F7200
G1 X95.997 Y87.595 E-.912
;WIPE_END
G1 E-.048 F4200
G1 Z.4 F720
G1 X91.449 Y85.659 F9000
G1 Z.2 F720
G1 E3.2 F2400
M204 P800
G1 F1200
G1 X92.585 Y83.69 E.07128
G1 X93.722 Y85.659 E.07128
G1 X91.509 Y85.659 E.0694
M204 P1000
G1 E-2.24 F4200
;WIPE_START
G1 F7200
G1 X92.298 Y84.215 E-.912
;WIPE_END
G1 E-.048 F4200
G1 Z.4 F720
G1 X86.335 Y83.69 F9000
G1 Z.2 F720
G1 E3.2 F2400
M204 P800
G1 F1200
G1 X87.472 Y85.659 E.07128
G1 X85.199 Y85.659 E.07128
G1 X86.305 Y83.742 E.0694
M204 P1000
G1 E-2.24 F4200
;WIPE_START
G1 F7200
G1 X87.161 Y85.148 E-.912
;WIPE_END
G1 E-.048 F4200
G1 Z.4 F720
G1 X82.074 Y86.151 F9000
G1 Z.2 F720
G1 E3.2 F2400
M204 P800
G1 F1200
G1 X84.347 Y86.151 E.07128
G1 X83.21 Y88.12 E.07128
M73 P3 R16
G1 X82.104 Y86.203 E.0694
M204 P1000
G1 E-2.24 F4200
;WIPE_START
G1 F7200
G1 X83.749 Y86.165 E-.912
;WIPE_END
G1 E-.048 F4200
G1 Z.4 F720
G1 X84.347 Y91.072 F9000
G1 Z.2 F720
G1 E3.2 F2400
M204 P800
G1 F1200
G1 X82.074 Y91.072 E.07128
G1 X83.21 Y89.103 E.07128
G1 X84.317 Y91.02 E.0694
M204 P1000
G1 E-2.24 F4200
;WIPE_START
G1 F7200
G1 X82.672 Y91.058 E-.912
;WIPE_END
G1 E-.048 F4200
G1 Z.4 F720
G1 X87.472 Y91.563 F9000
G1 Z.2 F720
G1 E3.2 F2400
M204 P800
G1 F1200
G1 X86.335 Y93.532 E.07128
G1 X85.199 Y91.563 E.07128
G1 X87.412 Y91.563 E.0694
M204 P1000
G1 E-2.24 F4200
;WIPE_START
G1 F7200
G1 X86.622 Y93.007 E-.912
;WIPE_END
G1 E-.048 F4200
G1 Z.4 F720
G1 X78.949 Y91.563 F9000
G1 Z.2 F720
G1 E3.2 F2400
M204 P800
G1 F1200
G1 X81.222 Y91.563 E.07128
G1 X80.085 Y93.532 E.07128
G1 X78.979 Y91.615 E.0694
M204 P1000
G1 E-2.24 F4200
;WIPE_START
G1 F7200
G1 X80.624 Y91.577 E-.912
;WIPE_END
G1 E-.048 F4200
G1 Z.4 F720
G1 X99.972 Y85.659 F9000
G1 Z.2 F720
G1 E3.2 F2400
M204 P800
G1 F1200
G1 X97.699 Y85.659 E.07128
G1 X98.835 Y83.69 E.07128
G1 X99.942 Y85.607 E.0694
M204 P1000
G1 E-2.24 F4200
;WIPE_START
G1 F7200
G1 X98.297 Y85.645 E-.912
;WIPE_END
G1 E-.048 F4200
G1 Z.4 F720
G1 X81.222 Y85.659 F9000
G1 Z.2 F720
G1 E3.2 F2400
M204 P800
G1 F1200
G1 X79.802 Y83.199 E.08908
G1 X81.506 Y80.246 E.10688
G1 X84.915 Y80.246 E.10688
G1 X86.335 Y82.707 E.08908
G1 X87.756 Y80.246 E.08908
G1 X91.165 Y80.246 E.10688
G1 X92.585 Y82.707 E.08908
G1 X94.006 Y80.246 E.08908
G1 X97.415 Y80.246 E.10688
G1 X98.835 Y82.707 E.08908
G1 X100.256 Y80.246 E.08908
G1 X103.665 Y80.246 E.10688
G1 X105.369 Y83.199 E.10688
G1 X103.665 Y86.151 E.10688
G1 X100.824 Y86.151 E.08908
G1 X102.244 Y88.611 E.08908
G1 X100.54 Y91.563 E.10688
G1 X97.699 Y91.563 E.08908
G1 X99.119 Y94.024 E.08908
G1 X97.415 Y96.976 E.10688
G1 X94.006 Y96.976 E.10688
G1 X92.585 Y94.516 E.08908
G1 X91.165 Y96.976 E.08908
G1 X87.756 Y96.976 E.10688
G1 X86.335 Y94.516 E.08908
G1 X84.915 Y96.976 E.08908
G1 X81.506 Y96.976 E.10688
G1 X80.085 Y94.516 E.08908
G1 X78.665 Y96.976 E.08908
G1 X75.256 Y96.976 E.10688
G1 X73.552 Y94.024 E.10688
G1 X75.256 Y91.072 E.10688
G1 X78.097 Y91.072 E.08908
G1 X76.677 Y88.611 E.08908
G1 X78.381 Y85.659 E.10688
G1 X81.162 Y85.659 E.0872
M204 P1000
G1 E-2.24 F4200
;WIPE_START
G1 F7200
G1 X80.366 Y84.219 E-.912
;WIPE_END
G1 E-.048 F4200
G1 Z.4 F720
G1 X89.612 Y88.611 F9000
G1 Z.2 F720
G1 E3.2 F2400
M204 P800
;TYPE:External perimeter
G1 F1200
G1 X91.099 Y86.036 E.09323
G1 X94.072 Y86.036 E.09323
M73 P4 R16
G1 X95.559 Y88.611 E.09323
G1 X94.072 Y91.186 E.09323
G1 X91.099 Y91.186 E.09323
G1 X89.642 Y88.663 E.09135
M204 P1000
G1 X89.266 Y88.411 F9000
G1 X89.309 Y88.611
M204 P800
G1 F1200
G1 X87.822 Y91.186 E.09323
G1 X84.849 Y91.186 E.09323
G1 X83.362 Y88.611 E.09323
G1 X84.849 Y86.036 E.09323
G1 X87.822 Y86.036 E.09323
G1 X89.279 Y88.559 E.09135
M204 P1000
G1 X89.655 Y88.811 F9000
G1 E-2.24 F4200
;WIPE_START
G1 F7200
G1 X88.481 Y89.999 E-.912
;WIPE_END
G1 E-.048 F4200
G1 Z.4 F720
G1 X87.974 Y91.449 F9000
G1 Z.2 F720
G1 E3.2 F2400
M204 P800
G1 F1200
G1 X90.947 Y91.449 E.09323
G1 X92.434 Y94.024 E.09323
G1 X90.947 Y96.599 E.09323
G1 X87.974 Y96.599 E.09323
G1 X86.487 Y94.024 E.09323
G1 X87.944 Y91.501 E.09135
M204 P1000
G1 X87.974 Y91.049 F9000
G1 E-2.24 F4200
;WIPE_START
G1 F7200
G1 X89.589 Y91.472 E-.912
;WIPE_END
G1 E-.048 F4200
G1 Z.4 F720
G1 X86.184 Y94.024 F9000
G1 Z.2 F720
G1 E3.2 F2400
M204 P800
G1 F1200
G1 X84.697 Y96.599 E.09323
G1 X81.724 Y96.599 E.09323
G1 X80.237 Y94.024 E.09323
G1 X81.724 Y91.449 E.09323
G1 X84.697 Y91.449 E.09323
G1 X86.154 Y93.972 E.09135
M204 P1000
G1 X86.53 Y94.224 F9000
G1 E-2.24 F4200
;WIPE_START
G1 F7200
G1 X85.356 Y95.411 E-.912
;WIPE_END
G1 E-.048 F4200
G1 Z.4 F720
G1 X81.572 Y91.186 F9000
G1 Z.2 F720
G1 E3.2 F2400
M204 P800
G1 F1200
G1 X78.599 Y91.186 E.09323
G1 X77.112 Y88.611 E.09323
G1 X78.599 Y86.036 E.09323
G1 X81.572 Y86.036 E.09323
G1 X83.059 Y88.611 E.09323
G1 X81.602 Y91.134 E.09135
M204 P1000
G1 X81.572 Y91.586 F9000
G1 E-2.24 F4200
;WIPE_START
G1 F7200
G1 X79.957 Y91.163 E-.912
;WIPE_END
G1 E-.048 F4200
G1 Z.4 F720
G1 X78.447 Y91.449 F9000
G1 Z.2 F720
G1 E3.2 F2400
M204 P800
G1 F1200
G1 X79.934 Y94.024 E.09323
G1 X78.447 Y96.599 E.09323
G1 X75.474 Y96.599 E.09323
G1 X73.987 Y94.024 E.09323
G1 X75.474 Y91.449 E.09323
G1 X78.387 Y91.449 E.09135
M204 P1000
G1 X78.793 Y91.249 F9000
G1 E-2.24 F4200
;WIPE_START
G1 F7200
G1 X79.234 Y92.86 E-.912
;WIPE_END
G1 E-.048 F4200
G1 Z.4 F720
G1 X81.724 Y85.774 F9000
G1 Z.2 F720
G1 E3.2 F2400
M204 P800
G1 F1200
G1 X80.237 Y83.199 E.09323
G1 X81.724 Y80.624 E.09323
G1 X84.697 Y80.624 E.09323
G1 X86.184 Y83.199 E.09323
G1 X84.697 Y85.774 E.09323
G1 X81.784 Y85.774 E.09135
M204 P1000
G1 X81.377 Y85.974 F9000
G1 E-2.24 F4200
;WIPE_START
G1 F7200
G1 X80.936 Y84.363 E-.912
;WIPE_END
G1 E-.048 F4200
G1 Z.4 F720
G1 X86.487 Y83.199 F9000
G1 Z.2 F720
M73 P4 R15
G1 E3.2 F2400
M204 P800
G1 F1200
G1 X87.974 Y80.624 E.09323
G1 X90.947 Y80.624 E.09323
G1 X92.434 Y83.199 E.09323
G1 X90.947 Y85.774 E.09323
G1 X87.974 Y85.774 E.09323
G1 X86.517 Y83.251 E.09135
M204 P1000
G1 X86.141 Y82.999 F9000
G1 E-2.24 F4200
;WIPE_START
G1 F7200
G1 X87.315 Y81.811 E-.912
;WIPE_END
G1 E-.048 F4200
G1 Z.4 F720
G1 X92.737 Y83.199 F9000
G1 Z.2 F720
G1 E3.2 F2400
M204 P800
G1 F1200
M73 P5 R15
G1 X94.224 Y80.624 E.09323
G1 X97.197 Y80.624 E.09323
G1 X98.684 Y83.199 E.09323
G1 X97.197 Y85.774 E.09323
G1 X94.224 Y85.774 E.09323
G1 X92.767 Y83.251 E.09135
M204 P1000
G1 X92.391 Y82.999 F9000
G1 E-2.24 F4200
;WIPE_START
G1 F7200
G1 X93.565 Y81.811 E-.912
;WIPE_END
G1 E-.048 F4200
G1 Z.4 F720
G1 X98.987 Y83.199 F9000
G1 Z.2 F720
G1 E3.2 F2400
M204 P800
G1 F1200
G1 X100.474 Y80.624 E.09323
G1 X103.447 Y80.624 E.09323
G1 X104.934 Y83.199 E.09323
G1 X103.447 Y85.774 E.09323
G1 X100.474 Y85.774 E.09323
G1 X99.017 Y83.251 E.09135
M204 P1000
G1 X98.641 Y82.999 F9000
G1 E-2.24 F4200
;WIPE_START
G1 F7200
G1 X99.815 Y81.811 E-.912
;WIPE_END
G1 E-.048 F4200
G1 Z.4 F720
G1 X100.322 Y86.036 F9000
G1 Z.2 F720
G1 E3.2 F2400
M204 P800
G1 F1200
G1 X101.809 Y88.611 E.09323
G1 X100.322 Y91.186 E.09323
G1 X97.349 Y91.186 E.09323
G1 X95.862 Y88.611 E.09323
G1 X97.349 Y86.036 E.09323
G1 X100.262 Y86.036 E.09135
M204 P1000
G1 X100.668 Y85.836 F9000
G1 E-2.24 F4200
;WIPE_START
G1 F7200
G1 X101.109 Y87.447 E-.912
;WIPE_END
G1 E-.048 F4200
G1 Z.4 F720
G1 X97.197 Y91.449 F9000
G1 Z.2 F720
G1 E3.2 F2400
M204 P800
G1 F1200
G1 X98.684 Y94.024 E.09323
G1 X97.197 Y96.599 E.09323
G1 X94.224 Y96.599 E.09323
G1 X92.737 Y94.024 E.09323
G1 X94.224 Y91.449 E.09323
G1 X97.137 Y91.449 E.09135
M204 P1000
G1 X97.543 Y91.249 F9000
G1 E-2.24 F4200
;WIPE_START
G1 F7200
G1 X97.984 Y92.86 E-.912
;WIPE_END
G1 E-.048 F4200
G1 Z.4 F720
G1 X107.712 Y73.801 F9000
G1 Z.2 F720
G1 E3.2 F2400
M204 P800
;TYPE:Perimeter
G1 F1200
G1 X107.712 Y79.576 E.18104
G1 X84.562 Y79.576 E.72586
G1 X84.562 Y73.801 E.18104
G1 X107.652 Y73.801 E.72398
M204 P1000
G1 X107.335 Y74.179 F9000
M204 P800
;TYPE:External perimeter
G1 F1200
G1 X107.335 Y79.198 E.15739
G1 X84.939 Y79.198 E.70221
G1 X84.939 Y74.179 E.15739
G1 X107.275 Y74.179 E.70033
M204 P1000
M73 P6 R15
G1 X107.734 Y74.149 F9000
G1 E-2.24 F4200
;WIPE_START
G1 F7200
G1 X107.295 Y75.824 E-.912
;WIPE_END
G1 E-.048 F4200
G1 Z.4 F720
G1 X107.725 Y102.576 F9000
G1 Z.2 F720
G1 E3.2 F2400
M204 P800
;TYPE:Perimeter
G1 F1200
G1 X84.575 Y102.576 E.72586
G1 X84.575 Y97.205 E.16838
G1 X103.775 Y97.205 E.602
G1 X103.775 Y96.414 E.0248
G1 X103.82 Y96.018 E.01251
G1 X103.966 Y95.6 E.0139
G1 X104.202 Y95.224 E.0139
G1 X104.515 Y94.911 E.0139
G1 X104.891 Y94.675 E.0139
G1 X105.309 Y94.528 E.0139
G1 X105.704 Y94.484 E.01244
G1 X106.184 Y94.526 E.0151
G1 X106.609 Y94.675 E.01413
G1 X106.985 Y94.911 E.0139
G1 X107.298 Y95.224 E.0139
G1 X107.509 Y95.56 E.01244
G1 X107.68 Y96.011 E.0151
G1 X107.725 Y96.414 E.01274
G1 X107.725 Y102.516 E.1913
M204 P1000
G1 X107.348 Y102.199 F9000
M204 P800
;TYPE:External perimeter
G1 F1200
G1 X84.952 Y102.199 E.70221
G1 X84.952 Y97.582 E.14473
G1 X104.152 Y97.582 E.602
G1 X104.152 Y96.436 E.03596
G1 X104.19 Y96.103 E.01051
G1 X104.308 Y95.764 E.01124
G1 X104.499 Y95.461 E.01124
G1 X104.752 Y95.207 E.01124
G1 X105.056 Y95.017 E.01124
G1 X105.394 Y94.898 E.01124
G1 X105.708 Y94.863 E.00993
G1 X106.104 Y94.897 E.01244
G1 X106.444 Y95.017 E.01132
G1 X106.748 Y95.207 E.01124
G1 X107.001 Y95.461 E.01124
G1 X107.17 Y95.729 E.00993
G1 X107.31 Y96.1 E.01244
G1 X107.348 Y96.436 E.01059
G1 X107.348 Y102.139 E.17881
M204 P1000
G1 X107.349 Y102.599 F9000
G1 E-2.24 F4200
;WIPE_START
G1 F7200
G1 X105.702 Y102.143 E-.912
;WIPE_END
G1 E-.048 F4200
G1 Z.4 F720
G1 X110.21 Y102.73 F9000
G1 Z.2 F720
G1 E3.2 F2400
M204 P800
;TYPE:Perimeter
G1 F1200
G1 X109.966 Y102.751 E.00769
G1 X70.034 Y102.751 E1.25202
G1 X69.79 Y102.73 E.00769
M73 P7 R15
G1 X69.586 Y102.676 E.00661
G1 X69.395 Y102.586 E.00661
G1 X69.222 Y102.465 E.00661
G1 X69.073 Y102.316 E.00661
G1 X68.952 Y102.144 E.00661
G1 X68.863 Y101.952 E.00661
G1 X68.808 Y101.749 E.00661
G1 X68.787 Y101.504 E.00769
G1 X68.787 Y74.873 E.835
G1 X68.808 Y74.628 E.00769
G1 X68.863 Y74.425 E.00661
G1 X68.952 Y74.234 E.00661
G1 X69.073 Y74.061 E.00661
G1 X69.222 Y73.912 E.00661
G1 X69.395 Y73.791 E.00661
G1 X69.586 Y73.702 E.00661
G1 X69.79 Y73.647 E.00661
G1 X70.034 Y73.626 E.00769
G1 X109.979 Y73.627 E1.25242
G1 X110.21 Y73.647 E.00729
G1 X110.414 Y73.702 E.00661
G1 X110.605 Y73.791 E.00661
G1 X110.778 Y73.912 E.00661
G1 X110.927 Y74.061 E.00661
G1 X111.048 Y74.234 E.00661
G1 X111.137 Y74.425 E.00661
G1 X111.192 Y74.628 E.00661
G1 X111.213 Y74.873 E.00769
G1 X111.213 Y101.504 E.835
G1 X111.192 Y101.749 E.00769
G1 X111.137 Y101.952 E.00661
G1 X111.048 Y102.144 E.00661
G1 X110.927 Y102.316 E.00661
G1 X110.778 Y102.465 E.00661
G1 X110.605 Y102.586 E.00661
G1 X110.414 Y102.676 E.00661
G1 X110.268 Y102.715 E.00473
M204 P1000
G1 X110.276 Y103.103 F9000
M204 P800
;TYPE:External perimeter
G1 F1200
G1 X109.982 Y103.129 E.00924
G1 X70.018 Y103.129 E1.25305
G1 X69.724 Y103.103 E.00925
G1 X69.457 Y103.031 E.00868
G1 X69.206 Y102.914 E.00868
G1 X68.979 Y102.755 E.00868
G1 X68.783 Y102.56 E.00868
G1 X68.624 Y102.333 E.00868
G1 X68.507 Y102.082 E.00868
G1 X68.436 Y101.814 E.00868
G1 X68.41 Y101.521 E.00924
G1 X68.41 Y74.856 E.83604
G1 X68.436 Y74.563 E.00925
G1 X68.507 Y74.295 E.00868
G1 X68.624 Y74.044 E.00868
G1 X68.783 Y73.818 E.00868
G1 X68.979 Y73.622 E.00868
G1 X69.206 Y73.463 E.00868
G1 X69.457 Y73.346 E.00868
G1 X69.724 Y73.274 E.00868
G1 X70.018 Y73.249 E.00924
G1 X109.995 Y73.25 E1.25346
G1 X110.276 Y73.274 E.00884
M73 P8 R15
G1 X110.543 Y73.346 E.00868
G1 X110.794 Y73.463 E.00868
G1 X111.021 Y73.622 E.00868
G1 X111.217 Y73.818 E.00868
G1 X111.376 Y74.044 E.00868
G1 X111.493 Y74.295 E.00868
G1 X111.564 Y74.563 E.00868
G1 X111.59 Y74.856 E.00925
G1 X111.59 Y101.521 E.83604
G1 X111.564 Y101.814 E.00925
G1 X111.493 Y102.082 E.00868
G1 X111.376 Y102.333 E.00868
G1 X111.217 Y102.56 E.00868
G1 X111.021 Y102.755 E.00868
G1 X110.794 Y102.914 E.00868
G1 X110.543 Y103.031 E.00868
G1 X110.334 Y103.087 E.0068
M204 P1000
G1 X110.086 Y102.877 F9000
G1 E-2.24 F4200
;WIPE_START
G1 F7200
G1 X109.982 Y103.129 E-.19622
G1 X108.69 Y103.129 E-.71578
;WIPE_END
G1 E-.048 F4200
G1 Z.4 F720
G1 X93.645 Y96.578 F9000
G1 Z.2 F720
