; generated by PrusaSlicer 2.4.1+win64 on 2022-03-30 at 18:58:05 UTC


;
;

;
;
; 

; external perimeters extrusion width = 0.45mm
; perimeters extrusion width = 0.45mm
; infill extrusion width = 0.45mm
; solid infill extrusion width = 0.45mm
; top infill extrusion width = 0.40mm
; first layer extrusion width = 0.42mm

M73 P0 R23
M201 X2500 Y2500 Z400 E5000 ; sets maximum accelerations, mm/sec^2
M203 X180 Y180 Z12 E80 ; sets maximum feedrates, mm / sec
M204 P1250 R1250 T2500 ; sets acceleration (P, T) and retract acceleration (R), mm/sec^2
M205 X8.00 Y8.00 Z2.00 E10.00 ; sets the jerk limits, mm/sec
M205 S0 T0 ; sets the minimum extruding and travel feed rate, mm/sec
M107
;TYPE:Custom
M862.3 P "MINI" ; printer model check
G90 ; use absolute coordinates
M83 ; extruder relative mode
M104 S170 ; set extruder temp for bed leveling
M140 S60 ; set bed temp
M109 R170 ; wait for bed leveling temp
M190 S60 ; wait for bed temp
M204 T1250 ; set travel acceleration
G28 ; home all without mesh bed level
G29 ; mesh bed leveling 
M204 T2500 ; restore travel acceleration
M104 S215 ; set extruder temp
G92 E0
G1 Y-2 X179 F2400
G1 Z3 F720
M109 S215 ; wait for extruder temp

; intro line
G1 X170 F1000
G1 Z0.2 F720
G1 X110 E8 F900
G1 X40 E10 F700
G92 E0

M221 S95 ; set flow
G21 ; set units to millimeters
G90 ; use absolute coordinates
M83 ; use relative distances for extrusion
M900 K0.2 ; Filament gcode LA 1.5
; ; Filament gcode LA 1.0
M107
;LAYER_CHANGE
;Z:0.2
;HEIGHT:0.2
;BEFORE_LAYER_CHANGE
G92 E0.0
;0.2


M73 P0 R22
G1 E-3.2 F4200
M73 P1 R22
G1 Z.2 F720
;AFTER_LAYER_CHANGE
;0.2
G1 Z.4
G1 X64.18 Y80.996 F9000
G1 Z.2 F720
G1 E3.2 F2400
M204 P800
;TYPE:Skirt/Brim
;WIDTH:0.42
G1 F1200
G1 X65.12 Y80.802 E.03008
G1 X114.88 Y80.802 E1.56019
G1 X116.187 Y81.194 E.04278
G1 X117.063 Y82.24 E.04278
G1 X117.257 Y83.18 E.03008
G1 X117.257 Y94.18 E.3449
G1 X116.865 Y95.487 E.04278
G1 X115.82 Y96.363 E.04278
G1 X114.88 Y96.557 E.03008
G1 X65.12 Y96.557 E1.56019
G1 X63.813 Y96.165 E.04278
G1 X62.937 Y95.119 E.04278
G1 X62.743 Y94.18 E.03008
G1 X62.743 Y83.18 E.3449
G1 X63.135 Y81.873 E.04278
G1 X64.134 Y81.035 E.0409
M204 P1000
; printing object ESP32 Cam Hinge id:0 copy 0
G1 E-2.24 F4200
;WIPE_START
G1 F7200
G1 X65.12 Y80.802 E-.56121
G1 X65.753 Y80.802 E-.35079
;WIPE_END
G1 E-.048 F4200
G1 Z.4 F720
G1 X87.414 Y87.64 F9000
G1 Z.2 F720
G1 E3.2 F2400
M204 P800
;TYPE:Perimeter
G1 F1200
G1 X87.628 Y87.211 E.01505
G1 X87.938 Y86.8 E.01615
G1 X88.318 Y86.453 E.01615
G1 X88.756 Y86.182 E.01615
G1 X89.236 Y85.996 E.01615
G1 X89.743 Y85.901 E.01615
G1 X90.257 Y85.901 E.01615
G1 X90.764 Y85.996 E.01615
G1 X91.244 Y86.182 E.01615
G1 X91.682 Y86.453 E.01615
G1 X92.062 Y86.8 E.01615
G1 X92.372 Y87.211 E.01615
G1 X92.602 Y87.672 E.01615
G1 X92.743 Y88.167 E.01615
G1 X92.79 Y88.68 E.01615
G1 X92.743 Y89.192 E.01615
G1 X92.602 Y89.688 E.01615
G1 X92.372 Y90.149 E.01615
G1 X92.083 Y90.532 E.01506
G1 X91.685 Y90.904 E.0171
G1 X91.244 Y91.177 E.01627
G1 X90.764 Y91.363 E.01615
G1 X90.257 Y91.458 E.01615
G1 X89.743 Y91.458 E.01615
G1 X89.236 Y91.363 E.01615
G1 X88.756 Y91.177 E.01615
G1 X88.318 Y90.906 E.01615
G1 X87.938 Y90.559 E.01615
G1 X87.628 Y90.149 E.01615
G1 X87.398 Y89.688 E.01615
G1 X87.257 Y89.192 E.01615
G1 X87.21 Y88.68 E.01615
G1 X87.257 Y88.167 E.01615
G1 X87.391 Y87.696 E.01536
M204 P1000
G1 X87.751 Y87.808 F9000
M204 P800
;TYPE:External perimeter
G1 F1200
G1 X87.949 Y87.41 E.01395
G1 X88.218 Y87.055 E.01395
G1 X88.547 Y86.755 E.01395
G1 X88.925 Y86.521 E.01395
G1 X89.34 Y86.36 E.01395
G1 X89.777 Y86.278 E.01395
G1 X90.223 Y86.278 E.01395
G1 X90.66 Y86.36 E.01395
G1 X91.075 Y86.521 E.01395
G1 X91.453 Y86.755 E.01395
G1 X91.782 Y87.055 E.01395
G1 X92.051 Y87.41 E.01395
G1 X92.249 Y87.808 E.01395
G1 X92.371 Y88.236 E.01395
G1 X92.412 Y88.68 E.01395
G1 X92.371 Y89.123 E.01395
G1 X92.249 Y89.551 E.01395
G1 X92.051 Y89.949 E.01395
G1 X91.802 Y90.279 E.01295
G1 X91.455 Y90.603 E.01491
G1 X91.075 Y90.838 E.014
G1 X90.66 Y90.999 E.01395
G1 X90.223 Y91.081 E.01395
G1 X89.777 Y91.081 E.01395
G1 X89.34 Y90.999 E.01395
G1 X88.925 Y90.838 E.01395
G1 X88.547 Y90.604 E.01395
G1 X88.218 Y90.304 E.01395
G1 X87.949 Y89.949 E.01395
G1 X87.751 Y89.551 E.01395
G1 X87.629 Y89.123 E.01395
G1 X87.588 Y88.68 E.01395
G1 X87.629 Y88.236 E.01395
G1 X87.735 Y87.866 E.01207
M204 P1000
G1 X87.5 Y87.497 F9000
G1 E-2.24 F4200
;WIPE_START
G1 F7200
G1 X87.949 Y87.41 E-.27939
G1 X88.218 Y87.055 E-.24664
G1 X88.547 Y86.755 E-.24663
G1 X88.76 Y86.623 E-.13934
;WIPE_END
G1 E-.048 F4200
G1 Z.4 F720
G1 X65.907 Y83.967 F9000
G1 Z.2 F720
G1 E3.2 F2400
M204 P800
;TYPE:Perimeter
G1 F1200
G1 X114.093 Y83.967 E1.51083
G1 X114.093 Y93.392 E.29554
M73 P2 R22
G1 X65.907 Y93.392 E1.51083
G1 X65.907 Y84.027 E.29366
M204 P1000
G1 X65.53 Y83.59 F9000
M204 P800
;TYPE:External perimeter
G1 F1200
G1 X114.47 Y83.59 E1.53448
G1 X114.47 Y93.77 E.31919
G1 X65.53 Y93.77 E1.53448
G1 X65.53 Y83.65 E.31731
M204 P1000
G1 X65.929 Y83.617 F9000
G1 E-2.24 F4200
;WIPE_START
G1 F7200
G1 X67.176 Y83.648 E-.912
;WIPE_END
G1 E-.048 F4200
G1 Z.4 F720
G1 X113.98 Y84.844 F9000
G1 Z.2 F720
G1 E3.2 F2400
M204 P800
;TYPE:Solid infill
;WIDTH:0.421153
G1 F1200
G1 X113.385 Y84.249 E.02647
G1 X112.85 Y84.249 E.01682
G1 X113.81 Y85.21 E.04271
G1 X113.81 Y85.745 E.01682
G1 X112.315 Y84.249 E.0665
G1 X111.78 Y84.249 E.01682
G1 X113.81 Y86.279 E.09029
G1 X113.81 Y86.814 E.01682
G1 X111.245 Y84.249 E.11408
G1 X110.71 Y84.249 E.01682
G1 X113.81 Y87.349 E.13787
G1 X113.81 Y87.884 E.01682
G1 X110.175 Y84.249 E.16166
G1 X109.64 Y84.249 E.01682
G1 X113.81 Y88.419 E.18546
G1 X113.81 Y88.954 E.01682
G1 X109.106 Y84.249 E.20925
G1 X108.571 Y84.249 E.01682
G1 X113.81 Y89.489 E.23304
G1 X113.81 Y90.024 E.01682
G1 X108.036 Y84.249 E.25683
G1 X107.501 Y84.249 E.01682
G1 X113.81 Y90.559 E.28062
G1 X113.81 Y91.094 E.01682
M73 P3 R22
G1 X106.966 Y84.249 E.30441
G1 X106.431 Y84.249 E.01682
G1 X113.81 Y91.628 E.3282
G1 X113.81 Y92.163 E.01682
G1 X105.896 Y84.249 E.35199
G1 X105.361 Y84.249 E.01682
G1 X113.81 Y92.698 E.37578
G1 X113.81 Y93.11 E.01294
G1 X113.687 Y93.11 E.00389
G1 X104.826 Y84.249 E.39408
G1 X104.291 Y84.249 E.01682
G1 X113.152 Y93.11 E.39408
G1 X112.617 Y93.11 E.01682
G1 X103.757 Y84.249 E.39408
G1 X103.222 Y84.249 E.01682
G1 X112.082 Y93.11 E.39408
G1 X111.547 Y93.11 E.01682
G1 X102.687 Y84.249 E.39408
G1 X102.152 Y84.249 E.01682
G1 X111.012 Y93.11 E.39408
G1 X110.477 Y93.11 E.01682
G1 X101.617 Y84.249 E.39408
G1 X101.082 Y84.249 E.01682
G1 X109.942 Y93.11 E.39408
G1 X109.407 Y93.11 E.01682
G1 X100.547 Y84.249 E.39408
G1 X100.012 Y84.249 E.01682
G1 X108.872 Y93.11 E.39408
G1 X108.338 Y93.11 E.01682
G1 X99.477 Y84.249 E.39408
G1 X98.942 Y84.249 E.01682
G1 X107.803 Y93.11 E.39408
G1 X107.268 Y93.11 E.01682
G1 X98.408 Y84.249 E.39408
G1 X97.873 Y84.249 E.01682
G1 X106.733 Y93.11 E.39408
G1 X106.198 Y93.11 E.01682
G1 X97.338 Y84.249 E.39408
G1 X96.803 Y84.249 E.01682
G1 X105.663 Y93.11 E.39408
G1 X105.128 Y93.11 E.01682
G1 X96.268 Y84.249 E.39408
G1 X95.733 Y84.249 E.01682
G1 X104.593 Y93.11 E.39408
G1 X104.058 Y93.11 E.01682
M73 P4 R22
G1 X95.198 Y84.249 E.39408
G1 X94.663 Y84.249 E.01682
G1 X103.523 Y93.11 E.39408
G1 X102.989 Y93.11 E.01682
G1 X94.128 Y84.249 E.39408
G1 X93.593 Y84.249 E.01682
G1 X102.454 Y93.11 E.39408
G1 X101.919 Y93.11 E.01682
G1 X93.058 Y84.249 E.39408
G1 X92.524 Y84.249 E.01682
G1 X101.384 Y93.11 E.39408
G1 X100.849 Y93.11 E.01682
G1 X91.989 Y84.249 E.39408
G1 X91.454 Y84.249 E.01682
G1 X100.314 Y93.11 E.39408
G1 X99.779 Y93.11 E.01682
G1 X90.919 Y84.249 E.39408
G1 X90.384 Y84.249 E.01682
G1 X99.244 Y93.11 E.39408
G1 X98.709 Y93.11 E.01682
G1 X89.849 Y84.249 E.39408
G1 X89.314 Y84.249 E.01682
G1 X90.775 Y85.71 E.06496
G1 X90.284 Y85.618 E.01571
G1 X90.148 Y85.618 E.00427
G1 X88.779 Y84.249 E.06088
G1 X88.244 Y84.249 E.01682
G1 X89.629 Y85.634 E.0616
G1 X89.179 Y85.719 E.01442
G1 X87.709 Y84.249 E.06535
G1 X87.175 Y84.249 E.01682
G1 X88.79 Y85.865 E.07186
G1 X88.63 Y85.927 E.00542
G1 X88.437 Y86.047 E.00713
G1 X86.64 Y84.249 E.07994
G1 X86.105 Y84.249 E.01682
G1 X88.113 Y86.257 E.08931
G1 X87.833 Y86.513 E.01191
G1 X85.57 Y84.249 E.10066
G1 X85.035 Y84.249 E.01682
G1 X87.584 Y86.799 E.11338
G1 X87.361 Y87.111 E.01206
G1 X84.5 Y84.249 E.12726
G1 X83.965 Y84.249 E.01682
G1 X87.184 Y87.468 E.14314
G1 X87.133 Y87.569 E.00355
G1 X87.048 Y87.867 E.00976
G1 X83.43 Y84.249 E.16092
G1 X82.895 Y84.249 E.01682
G1 X86.959 Y88.314 E.18076
G1 X86.926 Y88.68 E.01156
G1 X86.939 Y88.828 E.0047
G1 X82.36 Y84.249 E.20366
G1 X81.826 Y84.249 E.01682
G1 X87.287 Y89.711 E.24291
M204 P1000
G1 E-2.24 F4200
;WIPE_START
G1 F7200
G1 X86.123 Y88.547 E-.912
;WIPE_END
G1 E-.048 F4200
G1 Z.4 F720
G1 X92.713 Y87.648 F9000
G1 Z.2 F720
G1 E3.2 F2400
M204 P800
G1 F1200
G1 X98.174 Y93.11 E.24291
G1 X97.64 Y93.11 E.01682
G1 X93.061 Y88.531 E.20365
G1 X93.074 Y88.68 E.0047
G1 X93.041 Y89.046 E.01156
G1 X97.105 Y93.11 E.18076
G1 X96.57 Y93.11 E.01682
M73 P4 R21
G1 X92.952 Y89.492 E.16092
G1 X92.867 Y89.79 E.00976
G1 X92.816 Y89.891 E.00355
G1 X96.035 Y93.11 E.14314
G1 X95.5 Y93.11 E.01682
G1 X92.639 Y90.248 E.12726
G1 X92.416 Y90.56 E.01206
G1 X94.965 Y93.11 E.11338
G1 X94.43 Y93.11 E.01682
G1 X92.164 Y90.843 E.1008
G1 X91.888 Y91.102 E.0119
M73 P5 R21
G1 X93.895 Y93.11 E.0893
G1 X93.36 Y93.11 E.01682
G1 X91.563 Y91.312 E.07994
G1 X91.37 Y91.432 E.00713
G1 X91.21 Y91.494 E.00542
G1 X92.825 Y93.11 E.07186
G1 X92.291 Y93.11 E.01682
G1 X90.821 Y91.64 E.06535
G1 X90.371 Y91.725 E.01442
G1 X91.756 Y93.11 E.0616
G1 X91.221 Y93.11 E.01682
G1 X89.852 Y91.741 E.06088
G1 X89.716 Y91.741 E.00426
G1 X89.225 Y91.649 E.01571
G1 X90.686 Y93.11 E.06496
G1 X90.151 Y93.11 E.01682
G1 X81.291 Y84.249 E.39408
G1 X80.756 Y84.249 E.01682
G1 X89.616 Y93.11 E.39408
G1 X89.081 Y93.11 E.01682
G1 X80.221 Y84.249 E.39408
G1 X79.686 Y84.249 E.01682
G1 X88.546 Y93.11 E.39408
G1 X88.011 Y93.11 E.01682
G1 X79.151 Y84.249 E.39408
G1 X78.616 Y84.249 E.01682
G1 X87.476 Y93.11 E.39408
G1 X86.941 Y93.11 E.01682
G1 X78.081 Y84.249 E.39408
G1 X77.546 Y84.249 E.01682
G1 X86.407 Y93.11 E.39408
G1 X85.872 Y93.11 E.01682
G1 X77.011 Y84.249 E.39408
G1 X76.477 Y84.249 E.01682
G1 X85.337 Y93.11 E.39408
G1 X84.802 Y93.11 E.01682
G1 X75.942 Y84.249 E.39408
G1 X75.407 Y84.249 E.01682
G1 X84.267 Y93.11 E.39408
G1 X83.732 Y93.11 E.01682
G1 X74.872 Y84.249 E.39408
G1 X74.337 Y84.249 E.01682
G1 X83.197 Y93.11 E.39408
G1 X82.662 Y93.11 E.01682
G1 X73.802 Y84.249 E.39408
G1 X73.267 Y84.249 E.01682
G1 X82.127 Y93.11 E.39408
G1 X81.592 Y93.11 E.01682
G1 X72.732 Y84.249 E.39408
G1 X72.197 Y84.249 E.01682
G1 X81.058 Y93.11 E.39408
G1 X80.523 Y93.11 E.01682
G1 X71.662 Y84.249 E.39408
G1 X71.128 Y84.249 E.01682
G1 X79.988 Y93.11 E.39408
G1 X79.453 Y93.11 E.01682
M73 P6 R21
G1 X70.593 Y84.249 E.39408
G1 X70.058 Y84.249 E.01682
G1 X78.918 Y93.11 E.39408
G1 X78.383 Y93.11 E.01682
G1 X69.523 Y84.249 E.39408
G1 X68.988 Y84.249 E.01682
G1 X77.848 Y93.11 E.39408
G1 X77.313 Y93.11 E.01682
G1 X68.453 Y84.249 E.39408
G1 X67.918 Y84.249 E.01682
G1 X76.778 Y93.11 E.39408
G1 X76.243 Y93.11 E.01682
G1 X67.383 Y84.249 E.39408
G1 X66.848 Y84.249 E.01682
G1 X75.709 Y93.11 E.39408
G1 X75.174 Y93.11 E.01682
G1 X66.313 Y84.249 E.39408
G1 X66.19 Y84.249 E.00388
G1 X66.19 Y84.661 E.01294
G1 X74.639 Y93.11 E.37578
G1 X74.104 Y93.11 E.01682
G1 X66.19 Y85.196 E.35199
G1 X66.19 Y85.731 E.01682
G1 X73.569 Y93.11 E.3282
G1 X73.034 Y93.11 E.01682
G1 X66.19 Y86.266 E.30441
G1 X66.19 Y86.8 E.01682
G1 X72.499 Y93.11 E.28062
G1 X71.964 Y93.11 E.01682
G1 X66.19 Y87.335 E.25683
G1 X66.19 Y87.87 E.01682
G1 X71.429 Y93.11 E.23304
G1 X70.894 Y93.11 E.01682
G1 X66.19 Y88.405 E.20925
G1 X66.19 Y88.94 E.01682
G1 X70.36 Y93.11 E.18545
G1 X69.825 Y93.11 E.01682
G1 X66.19 Y89.475 E.16166
G1 X66.19 Y90.01 E.01682
G1 X69.29 Y93.11 E.13787
G1 X68.755 Y93.11 E.01682
G1 X66.19 Y90.545 E.11408
G1 X66.19 Y91.08 E.01682
G1 X68.22 Y93.11 E.09029
G1 X67.685 Y93.11 E.01682
G1 X66.19 Y91.615 E.0665
G1 X66.19 Y92.149 E.01682
G1 X67.15 Y93.11 E.04271
G1 X66.615 Y93.11 E.01682
G1 X66.02 Y92.515 E.02646
M204 P1000
; stop printing object ESP32 Cam Hinge id:0 copy 0
M106 S84.15
;LAYER_CHANGE
;Z:0.4
;HEIGHT:0.2
;BEFORE_LAYER_CHANGE
G92 E0.0
;0.4


G1 E-2.24 F4200
;WIPE_START
G1 F7200
G1 X66.615 Y93.11 E-.46631
G1 X67.15 Y93.11 E-.29642
G1 X66.96 Y92.919 E-.14926
;WIPE_END
G1 E-.048 F4200
G1 Z.4 F720
;AFTER_LAYER_CHANGE
;0.4
G1 Z.6
G1 X66.96 Y96.557 F9000
G1 Z.4 F720
G1 E3.2 F2400
;TYPE:Skirt/Brim
;WIDTH:0.42
G1 X65.12 Y96.557 E.05768
G1 X63.813 Y96.165 E.04278
G1 X62.937 Y95.119 E.04278
G1 X62.743 Y94.18 E.03008
G1 X62.743 Y83.18 E.3449
G1 X63.135 Y81.873 E.04278
G1 X64.18 Y80.996 E.04278
G1 X65.12 Y80.802 E.03008
G1 X114.88 Y80.802 E1.56019
G1 X116.187 Y81.194 E.04278
M73 P7 R21
G1 X117.063 Y82.24 E.04278
G1 X117.257 Y83.18 E.03008
G1 X117.257 Y94.18 E.3449
G1 X116.865 Y95.487 E.04278
G1 X115.82 Y96.363 E.04278
G1 X114.88 Y96.557 E.03008
G1 X67.02 Y96.557 E1.50063
; printing object ESP32 Cam Hinge id:0 copy 0
G1 E-2.24 F4200
;WIPE_START
G1 F7200
G1 X65.374 Y96.557 E-.912
;WIPE_END
G1 E-.048 F4200
G1 Z.6 F720
G1 X87.56 Y89.665 F9000
G1 Z.4 F720
G1 E3.2 F2400
M204 P800
;TYPE:Perimeter
;WIDTH:0.45
G1 F1500
G1 X87.41 Y89.164 E.01771
G1 X87.369 Y88.722 E.01503
G1 X87.409 Y88.201 E.01769
G1 X87.543 Y87.728 E.01664
G1 X87.76 Y87.293 E.01646
G1 X88.053 Y86.905 E.01646
G1 X88.412 Y86.577 E.01646
G1 X88.826 Y86.321 E.01646
G1 X89.279 Y86.145 E.01646
G1 X89.757 Y86.056 E.01646
G1 X90.243 Y86.056 E.01646
G1 X90.721 Y86.145 E.01646
G1 X91.174 Y86.321 E.01646
G1 X91.588 Y86.577 E.01646
G1 X91.947 Y86.905 E.01646
G1 X92.24 Y87.293 E.01646
G1 X92.457 Y87.728 E.01646
G1 X92.59 Y88.195 E.01646
G1 X92.635 Y88.68 E.01646
G1 X92.59 Y89.164 E.01646
G1 X92.457 Y89.631 E.01646
G1 X92.24 Y90.067 E.01646
G1 X91.947 Y90.455 E.01646
G1 X91.588 Y90.782 E.01646
G1 X91.174 Y91.038 E.01646
G1 X90.721 Y91.214 E.01646
G1 X90.243 Y91.303 E.01646
G1 X89.757 Y91.303 E.01646
G1 X89.279 Y91.214 E.01646
G1 X88.826 Y91.038 E.01646
G1 X88.412 Y90.782 E.01646
G1 X88.053 Y90.455 E.01646
G1 X87.76 Y90.067 E.01646
G1 X87.587 Y89.719 E.01315
M204 P1000
G1 X87.924 Y89.484 F9000
M204 P800
;TYPE:External perimeter
G1 F1500
G1 X87.812 Y89.089 E.0139
G1 X87.778 Y88.718 E.01259
G1 X87.811 Y88.272 E.01513
G1 X87.924 Y87.875 E.01397
G1 X88.107 Y87.508 E.0139
G1 X88.355 Y87.18 E.0139
G1 X88.659 Y86.903 E.0139
G1 X89.008 Y86.687 E.0139
G1 X89.391 Y86.539 E.0139
G1 X89.795 Y86.463 E.0139
G1 X90.205 Y86.463 E.0139
G1 X90.609 Y86.539 E.0139
G1 X90.992 Y86.687 E.0139
G1 X91.341 Y86.903 E.0139
G1 X91.645 Y87.18 E.0139
G1 X91.893 Y87.508 E.0139
G1 X92.076 Y87.875 E.0139
G1 X92.188 Y88.271 E.0139
G1 X92.226 Y88.68 E.0139
G1 X92.188 Y89.089 E.0139
G1 X92.076 Y89.484 E.0139
G1 X91.893 Y89.851 E.0139
G1 X91.645 Y90.179 E.0139
G1 X91.341 Y90.456 E.0139
G1 X90.992 Y90.672 E.0139
G1 X90.609 Y90.821 E.0139
G1 X90.205 Y90.896 E.0139
G1 X89.795 Y90.896 E.0139
G1 X89.391 Y90.821 E.0139
G1 X89.008 Y90.672 E.0139
G1 X88.659 Y90.456 E.0139
G1 X88.355 Y90.179 E.0139
G1 X88.107 Y89.851 E.0139
G1 X87.951 Y89.537 E.01187
M204 P1000
G1 X87.529 Y89.422 F9000
G1 E-2.24 F4200
;WIPE_START
G1 F7200
G1 X87.812 Y89.089 E-.26039
G1 X87.778 Y88.718 E-.20613
G1 X87.811 Y88.272 E-.24778
G1 X87.909 Y87.929 E-.1977
;WIPE_END
G1 E-.048 F4200
G1 Z.6 F720
G1 X65.752 Y93.547 F9000
G1 Z.4 F720
G1 E3.2 F2400
M204 P800
;TYPE:Perimeter
G1 X65.752 Y83.812 E.32955
G1 X114.248 Y83.812 E1.64153
G1 X114.248 Y93.547 E.32955
G1 X65.812 Y93.547 E1.6395
M204 P1000
G1 X65.345 Y93.955 F9000
M204 P800
;TYPE:External perimeter
G1 F1800
G1 X65.345 Y83.405 E.35711
G1 X114.655 Y83.405 E1.66908
G1 X114.655 Y93.955 E.35711
G1 X65.405 Y93.955 E1.66705
M204 P1000
G1 X65.52 Y93.595 F9000
G1 E-2.24 F4200
;WIPE_START
G1 F7200
G1 X65.396 Y92.309 E-.912
;WIPE_END
G1 E-.048 F4200
G1 Z.6 F720
G1 X113.299 Y93.425 F9000
G1 Z.4 F720
G1 E3.2 F2400
;TYPE:Solid infill
;WIDTH:0.451801
G1 F4800
G1 X113.943 Y92.782 E.03094
G1 X113.943 Y92.204 E.01966
G1 X112.904 Y93.242 E.04994
G1 X112.326 Y93.242 E.01966
G1 X113.943 Y91.625 E.07774
G1 X113.943 Y91.047 E.01966
G1 X111.748 Y93.242 E.10554
