; generated by PrusaSlicer 2.4.1+win64 on 2022-03-30 at 19:04:36 UTC


;
;

;
;
; 

; external perimeters extrusion width = 0.45mm
; perimeters extrusion width = 0.45mm
; infill extrusion width = 0.45mm
; solid infill extrusion width = 0.45mm
; top infill extrusion width = 0.40mm
; first layer extrusion width = 0.42mm

M73 P0 R36
M201 X2500 Y2500 Z400 E5000 ; sets maximum accelerations, mm/sec^2
M203 X180 Y180 Z12 E80 ; sets maximum feedrates, mm / sec
M204 P1250 R1250 T2500 ; sets acceleration (P, T) and retract acceleration (R), mm/sec^2
M205 X8.00 Y8.00 Z2.00 E10.00 ; sets the jerk limits, mm/sec
M205 S0 T0 ; sets the minimum extruding and travel feed rate, mm/sec
M107
;TYPE:Custom
M862.3 P "MINI" ; printer model check
G90 ; use absolute coordinates
M83 ; extruder relative mode
M104 S170 ; set extruder temp for bed leveling
M140 S60 ; set bed temp
M109 R170 ; wait for bed leveling temp
M190 S60 ; wait for bed temp
M204 T1250 ; set travel acceleration
G28 ; home all without mesh bed level
G29 ; mesh bed leveling 
M204 T2500 ; restore travel acceleration
M104 S215 ; set extruder temp
G92 E0
G1 Y-2 X179 F2400
G1 Z3 F720
M109 S215 ; wait for extruder temp

; intro line
G1 X170 F1000
G1 Z0.2 F720
G1 X110 E8 F900
G1 X40 E10 F700
G92 E0

M221 S95 ; set flow
G21 ; set units to millimeters
G90 ; use absolute coordinates
M83 ; use relative distances for extrusion
M900 K0.2 ; Filament gcode LA 1.5
; ; Filament gcode LA 1.0
M107
;LAYER_CHANGE
;Z:0.2
;HEIGHT:0.2
;BEFORE_LAYER_CHANGE
G92 E0.0
;0.2


G1 E-3.2 F4200
G1 Z.2 F720
;AFTER_LAYER_CHANGE
;0.2
G1 Z.4
G1 X66.909 Y73.572 F9000
G1 Z.2 F720
G1 E3.2 F2400
M204 P800
;TYPE:Skirt/Brim
;WIDTH:0.42
G1 F1200
G1 X67.351 Y73.171 E.01872
G1 X67.995 Y72.764 E.0239
G1 X68.701 Y72.475 E.0239
G1 X70 Y72.273 E.04123
G1 X110.207 Y72.282 E1.26066
G1 X110.962 Y72.384 E.0239
G1 X111.689 Y72.616 E.0239
G1 X112.363 Y72.971 E.0239
G1 X112.966 Y73.437 E.0239
G1 X113.679 Y74.287 E.03477
G1 X114.034 Y74.961 E.0239
G1 X114.266 Y75.687 E.0239
G1 X114.368 Y76.443 E.0239
G1 X114.368 Y103.557 E.85015
G1 X114.261 Y104.331 E.02451
G1 X113.886 Y105.355 E.03416
G1 X113.479 Y105.999 E.0239
G1 X112.649 Y106.829 E.03681
G1 X112.005 Y107.236 E.0239
G1 X111.299 Y107.525 E.0239
G1 X110 Y107.727 E.04123
G1 X70 Y107.727 E1.25417
G1 X69.038 Y107.616 E.03038
M73 P1 R36
G1 X67.995 Y107.236 E.03477
G1 X67.351 Y106.829 E.0239
G1 X66.521 Y105.999 E.03681
G1 X66.114 Y105.355 E.0239
G1 X65.825 Y104.649 E.0239
G1 X65.623 Y103.35 E.04123
G1 X65.623 Y76.65 E.83716
G1 X65.734 Y75.688 E.03038
G1 X66.114 Y74.645 E.03477
G1 X66.787 Y73.684 E.03682
G1 X66.865 Y73.613 E.0033
M204 P1000
; printing object ESP32 Cam Base id:0 copy 0
G1 E-2.24 F4200
;WIPE_START
G1 F7200
G1 X67.351 Y73.171 E-.36418
G1 X67.995 Y72.764 E-.4224
G1 X68.205 Y72.678 E-.12542
;WIPE_END
G1 E-.048 F4200
G1 Z.4 F720
G1 X79.053 Y98.064 F9000
G1 Z.2 F720
G1 E3.2 F2400
M204 P800
;TYPE:External perimeter
G1 F1200
G1 X79.555 Y97.877 E.0168
G1 X80.085 Y97.764 E.01697
G1 X80.6 Y97.727 E.0162
G1 X81.115 Y97.764 E.0162
G1 X81.645 Y97.877 E.01697
G1 X82.147 Y98.064 E.0168
G1 X82.62 Y98.324 E.01691
G1 X83.037 Y98.636 E.01634
G1 X83.414 Y99.013 E.01673
G1 X83.737 Y99.448 E.01697
G1 X83.986 Y99.903 E.01627
G1 X84.166 Y100.385 E.01614
G1 X84.283 Y100.913 E.01696
G1 X84.323 Y101.45 E.01687
G1 X84.283 Y101.986 E.01685
G1 X84.173 Y102.495 E.01634
G1 X83.986 Y102.997 E.01678
G1 X83.737 Y103.453 E.01629
G1 X83.411 Y103.888 E.01706
G1 X83.016 Y104.26 E.01699
G1 X82.559 Y104.54 E.01681
G1 X82.053 Y104.706 E.01672
G1 X81.106 Y104.936 E.03054
G1 X80.6 Y104.972 E.0159
G1 X80.097 Y104.936 E.01582
G1 X79.145 Y104.705 E.0307
G1 X78.641 Y104.54 E.01664
G1 X78.183 Y104.26 E.01681
G1 X77.79 Y103.888 E.01699
G1 X77.463 Y103.453 E.01706
G1 X77.214 Y102.997 E.01628
G1 X77.034 Y102.515 E.01614
G1 X76.917 Y101.987 E.01696
G1 X76.877 Y101.45 E.01687
G1 X76.917 Y100.914 E.01685
G1 X77.027 Y100.405 E.01634
G1 X77.214 Y99.903 E.01679
G1 X77.474 Y99.43 E.01691
G1 X77.786 Y99.013 E.01634
G1 X78.163 Y98.636 E.01672
G1 X78.58 Y98.324 E.01634
G1 X79 Y98.093 E.01503
M204 P1000
G1 X79.091 Y97.666 F9000
G1 E-2.24 F4200
;WIPE_START
G1 F7200
G1 X79.555 Y97.877 E-.32993
G1 X80.085 Y97.764 E-.29993
G1 X80.592 Y97.728 E-.28214
;WIPE_END
G1 E-.048 F4200
G1 Z.4 F720
G1 X97.547 Y91.887 F9000
G1 Z.2 F720
G1 E3.2 F2400
M204 P800
;TYPE:Perimeter
G1 F1200
G1 X97.334 Y91.259 E.02079
G1 X97.222 Y90.7 E.01787
G1 X97.169 Y90 E.02202
G1 X97.222 Y89.3 E.02202
G1 X97.334 Y88.741 E.01787
G1 X97.536 Y88.136 E.01999
G1 X97.848 Y87.506 E.02204
G1 X98.205 Y86.978 E.02
G1 X98.627 Y86.501 E.01995
G1 X99.106 Y86.083 E.01994
G1 X99.58 Y85.767 E.01786
G1 X100.204 Y85.449 E.02196
G1 X100.872 Y85.227 E.02207
G1 X101.431 Y85.116 E.01788
G1 X102.066 Y85.071 E.01996
G1 X102.768 Y85.116 E.02204
G1 X103.393 Y85.243 E.02001
G1 X103.999 Y85.45 E.02006
G1 X104.62 Y85.767 E.02187
G1 X105.094 Y86.083 E.01786
G1 X105.573 Y86.501 E.01994
G1 X105.995 Y86.978 E.01995
G1 X106.352 Y87.506 E.02
G1 X106.664 Y88.136 E.02204
G1 X106.866 Y88.741 E.01999
G1 X106.978 Y89.3 E.01787
G1 X107.031 Y90 E.02202
G1 X106.978 Y90.7 E.02202
G1 X106.866 Y91.259 E.01787
G1 X106.664 Y91.864 E.01999
G1 X106.352 Y92.494 E.02204
G1 X105.995 Y93.022 E.02
G1 X105.573 Y93.499 E.01995
G1 X105.094 Y93.917 E.01994
G1 X104.62 Y94.233 E.01786
G1 X103.996 Y94.551 E.02197
G1 X103.328 Y94.773 E.02207
G1 X102.769 Y94.884 E.01788
G1 X102.134 Y94.929 E.01996
G1 X101.432 Y94.884 E.02204
G1 X100.807 Y94.757 E.02001
G1 X100.201 Y94.55 E.02006
G1 X99.58 Y94.233 E.02187
G1 X99.106 Y93.917 E.01786
G1 X98.627 Y93.499 E.01994
G1 X98.205 Y93.022 E.01995
G1 X97.848 Y92.494 E.02
G1 X97.574 Y91.941 E.01935
M204 P1000
G1 X97.885 Y91.72 F9000
M204 P800
;TYPE:External perimeter
G1 F1200
G1 X97.699 Y91.162 E.01843
G1 X97.597 Y90.649 E.01641
G1 X97.547 Y90 E.02041
G1 X97.597 Y89.351 E.02041
G1 X97.699 Y88.838 E.01641
G1 X97.885 Y88.28 E.01843
G1 X98.174 Y87.696 E.02043
G1 X98.504 Y87.209 E.01844
G1 X98.893 Y86.769 E.01842
G1 X99.336 Y86.383 E.01842
G1 X99.771 Y86.092 E.01641
G1 X100.349 Y85.797 E.02037
G1 X100.968 Y85.592 E.02044
G1 X101.482 Y85.49 E.01641
G1 X102.068 Y85.449 E.01842
G1 X102.718 Y85.49 E.02043
G1 X103.294 Y85.607 E.01844
G1 X103.851 Y85.798 E.01846
G1 X104.429 Y86.092 E.02034
G1 X104.864 Y86.383 E.0164
G1 X105.307 Y86.769 E.01842
G1 X105.696 Y87.209 E.01842
G1 X106.026 Y87.696 E.01844
G1 X106.315 Y88.28 E.02043
G1 X106.501 Y88.838 E.01843
G1 X106.603 Y89.351 E.01641
G1 X106.653 Y90 E.02041
G1 X106.603 Y90.649 E.02041
G1 X106.501 Y91.162 E.01641
G1 X106.315 Y91.72 E.01843
G1 X106.026 Y92.304 E.02043
G1 X105.696 Y92.791 E.01844
G1 X105.307 Y93.231 E.01842
G1 X104.864 Y93.617 E.01842
G1 X104.429 Y93.908 E.0164
G1 X103.851 Y94.203 E.02037
G1 X103.232 Y94.408 E.02044
G1 X102.718 Y94.51 E.01641
G1 X102.132 Y94.551 E.01842
G1 X101.482 Y94.51 E.02043
G1 X100.906 Y94.393 E.01844
G1 X100.349 Y94.202 E.01846
G1 X99.771 Y93.908 E.02034
G1 X99.336 Y93.617 E.0164
G1 X98.893 Y93.231 E.01842
G1 X98.504 Y92.791 E.01842
G1 X98.174 Y92.304 E.01844
G1 X97.912 Y91.773 E.01855
M204 P1000
G1 X97.489 Y91.666 F9000
G1 E-2.24 F4200
;WIPE_START
G1 F7200
G1 X97.699 Y91.162 E-.35877
G1 X97.597 Y90.649 E-.28996
G1 X97.561 Y90.175 E-.26327
;WIPE_END
G1 E-.048 F4200
G1 Z.4 F720
G1 X78.921 Y97.711 F9000
G1 Z.2 F720
G1 E3.2 F2400
M204 P800
;TYPE:Perimeter
G1 F1200
G1 X78.375 Y98.006 E.01946
G1 X77.915 Y98.35 E.01801
G1 X77.5 Y98.765 E.01841
G1 X77.156 Y99.225 E.01801
G1 X76.87 Y99.746 E.01861
G1 X76.665 Y100.298 E.0185
G1 X76.542 Y100.86 E.01801
G1 X76.499 Y101.45 E.01855
G1 X76.543 Y102.042 E.0186
G1 X76.672 Y102.622 E.01865
G1 X76.87 Y103.154 E.0178
G1 X77.145 Y103.657 E.01798
G1 X77.507 Y104.14 E.01892
G1 X77.981 Y104.578 E.02022
G1 X70.034 Y104.563 E.24915
G1 X69.79 Y104.542 E.0077
G1 X69.586 Y104.487 E.00661
G1 X69.395 Y104.398 E.00661
G1 X69.222 Y104.277 E.00661
G1 X69.073 Y104.128 E.00661
G1 X68.952 Y103.955 E.00661
G1 X68.863 Y103.764 E.00661
G1 X68.808 Y103.56 E.00661
G1 X68.787 Y103.316 E.00769
G1 X68.787 Y76.684 E.835
G1 X68.808 Y76.44 E.00769
G1 X68.863 Y76.236 E.00661
G1 X68.952 Y76.045 E.00661
G1 X69.073 Y75.872 E.00661
G1 X69.222 Y75.723 E.00661
G1 X69.395 Y75.602 E.00661
G1 X69.586 Y75.513 E.00661
G1 X69.79 Y75.458 E.00661
G1 X70.034 Y75.437 E.00769
G1 X109.966 Y75.437 E1.25202
G1 X110.21 Y75.458 E.00769
G1 X110.414 Y75.513 E.00661
G1 X110.605 Y75.602 E.00661
G1 X110.778 Y75.723 E.00661
G1 X110.927 Y75.872 E.00661
G1 X111.048 Y76.045 E.00661
G1 X111.137 Y76.236 E.00661
G1 X111.192 Y76.44 E.00661
G1 X111.213 Y76.684 E.00769
G1 X111.213 Y103.316 E.835
G1 X111.192 Y103.56 E.00769
G1 X111.137 Y103.764 E.00661
G1 X111.048 Y103.955 E.00661
G1 X110.927 Y104.128 E.00661
G1 X110.778 Y104.277 E.00661
G1 X110.605 Y104.398 E.00661
G1 X110.414 Y104.487 E.00661
G1 X110.21 Y104.542 E.00661
G1 X109.966 Y104.563 E.00769
G1 X83.992 Y104.563 E.81439
G1 X83.207 Y104.585 E.02461
G1 X83.693 Y104.14 E.02066
G1 X84.055 Y103.657 E.01893
G1 X84.33 Y103.154 E.01798
G1 X84.535 Y102.602 E.01848
G1 X84.658 Y102.04 E.01801
G1 X84.701 Y101.45 E.01855
G1 X84.657 Y100.858 E.0186
G1 X84.528 Y100.278 E.01865
M73 P1 R35
G1 X84.33 Y99.746 E.0178
G1 X84.056 Y99.244 E.01794
G1 X83.7 Y98.766 E.01866
G1 X83.285 Y98.35 E.01844
G1 X82.825 Y98.006 E.01801
G1 X82.304 Y97.72 E.01861
G1 X81.75 Y97.514 E.01853
G1 X81.168 Y97.39 E.01866
G1 X80.6 Y97.349 E.01787
G1 X80.032 Y97.39 E.01787
G1 X79.45 Y97.514 E.01866
G1 X78.978 Y97.69 E.01579
M204 P1000
G1 E-2.24 F4200
;WIPE_START
G1 F7200
G1 X78.375 Y98.006 E-.37696
G1 X77.915 Y98.35 E-.31839
G1 X77.639 Y98.627 E-.21665
;WIPE_END
G1 E-.048 F4200
G1 Z.4 F720
G1 X79.512 Y105.14 F9000
G1 Z.2 F720
G1 E3.2 F2400
M204 P800
;TYPE:External perimeter
G1 F1200
G1 X78.527 Y105.003 E.03119
G1 X78.012 Y104.956 E.01619
G1 X77.503 Y104.942 E.01598
G1 X70.018 Y104.94 E.23469
G1 X69.724 Y104.914 E.00925
G1 X69.457 Y104.843 E.00868
G1 X69.206 Y104.726 E.00868
G1 X68.979 Y104.567 E.00868
G1 X68.783 Y104.371 E.00868
G1 X68.624 Y104.144 E.00868
G1 X68.507 Y103.893 E.00868
G1 X68.436 Y103.626 E.00868
G1 X68.41 Y103.332 E.00924
G1 X68.41 Y76.668 E.83604
G1 X68.436 Y76.374 E.00924
G1 X68.507 Y76.107 E.00868
G1 X68.624 Y75.856 E.00868
G1 X68.783 Y75.629 E.00868
G1 X68.979 Y75.433 E.00868
G1 X69.206 Y75.274 E.00868
G1 X69.457 Y75.157 E.00868
G1 X69.724 Y75.086 E.00868
G1 X70.018 Y75.06 E.00925
G1 X109.982 Y75.06 E1.25305
G1 X110.276 Y75.086 E.00924
G1 X110.543 Y75.157 E.00868
G1 X110.794 Y75.274 E.00868
G1 X111.021 Y75.433 E.00868
G1 X111.217 Y75.629 E.00868
G1 X111.376 Y75.856 E.00868
G1 X111.493 Y76.107 E.00868
G1 X111.564 Y76.374 E.00868
G1 X111.59 Y76.668 E.00925
G1 X111.59 Y103.332 E.83604
G1 X111.564 Y103.626 E.00924
G1 X111.493 Y103.893 E.00868
G1 X111.376 Y104.144 E.00868
G1 X111.217 Y104.371 E.00868
G1 X111.021 Y104.567 E.00868
G1 X110.794 Y104.726 E.00868
M73 P2 R35
G1 X110.543 Y104.843 E.00868
G1 X110.276 Y104.914 E.00868
G1 X109.982 Y104.94 E.00925
G1 X83.997 Y104.94 E.81474
G1 X82.981 Y104.969 E.03186
G1 X81.98 Y105.119 E.03175
G1 X81.495 Y105.14 E.0152
G1 X79.572 Y105.14 E.06031
M204 P1000
G1 X79.344 Y104.777 F9000
G1 X78.912 Y104.852
M204 P800
;TYPE:Gap fill
;WIDTH:0.119165
G1 F1200
G1 X78.735 Y104.808 E.00115
M204 P1000
M204 P800
;WIDTH:0.145009
G1 X78.559 Y104.765 E.00154
M204 P1000
M204 P800
;WIDTH:0.145704
G1 X78.555 Y104.765 E.00003
M204 P1000
M204 P800
;WIDTH:0.148092
G1 X78.545 Y104.763 E.00009
M204 P1000
M204 P800
;WIDTH:0.152443
G1 X78.154 Y104.658 E.00368
M204 P1000
G1 E-2.24 F4200
;WIPE_START
G1 F7200
G1 X78.545 Y104.763 E-.22421
;WIPE_END
G1 E-.73579 F4200
G1 Z.4 F720
G1 X82.246 Y104.865 F9000
G1 Z.2 F720
G1 E3.2 F2400
M204 P800
;WIDTH:0.126455
G1 F1200
G1 X82.451 Y104.817 E.00147
M204 P1000
M204 P800
;WIDTH:0.15959
G1 X82.657 Y104.768 E.00205
M204 P1000
M204 P800
;WIDTH:0.163573
G1 X83.031 Y104.656 E.00392
M204 P1000
G1 E-2.24 F4200
;WIPE_START
G1 F7200
G1 X82.657 Y104.768 E-.21644
;WIPE_END
G1 E-.74356 F4200
G1 Z.4 F720
G1 X110.235 Y75.582 F9000
G1 Z.2 F720
G1 E3.2 F2400
M204 P800
;TYPE:Solid infill
;WIDTH:0.422813
G1 F1200
G1 X110.714 Y76.062 E.02142
G1 X110.802 Y76.187 E.00483
G1 X110.87 Y76.333 E.0051
G1 X110.912 Y76.489 E.0051
G1 X110.93 Y76.815 E.0103
G1 X109.835 Y75.72 E.04891
G1 X109.298 Y75.72 E.01697
G1 X110.93 Y77.352 E.07291
G1 X110.93 Y77.889 E.01697
G1 X108.761 Y75.72 E.09691
G1 X108.223 Y75.72 E.01697
G1 X110.93 Y78.427 E.12091
G1 X110.93 Y78.964 E.01697
G1 X107.686 Y75.72 E.14491
G1 X107.149 Y75.72 E.01697
G1 X110.93 Y79.501 E.16891
G1 X110.93 Y80.038 E.01697
G1 X106.612 Y75.72 E.19291
G1 X106.074 Y75.72 E.01697
G1 X110.93 Y80.576 E.21692
G1 X110.93 Y81.113 E.01697
G1 X105.537 Y75.72 E.24092
G1 X105 Y75.72 E.01697
G1 X110.93 Y81.65 E.26492
G1 X110.93 Y82.187 E.01697
G1 X104.463 Y75.72 E.28892
G1 X103.925 Y75.72 E.01697
G1 X110.93 Y82.725 E.31292
G1 X110.93 Y83.262 E.01697
G1 X103.388 Y75.72 E.33692
G1 X102.851 Y75.72 E.01697
G1 X110.93 Y83.799 E.36092
G1 X110.93 Y84.336 E.01697
G1 X102.314 Y75.72 E.38492
G1 X101.776 Y75.72 E.01697
G1 X110.93 Y84.874 E.40892
G1 X110.93 Y85.411 E.01697
G1 X101.239 Y75.72 E.43292
G1 X100.702 Y75.72 E.01697
G1 X110.93 Y85.948 E.45692
G1 X110.93 Y86.485 E.01697
G1 X100.165 Y75.72 E.48092
G1 X99.627 Y75.72 E.01697
G1 X110.93 Y87.023 E.50492
G1 X110.93 Y87.56 E.01697
G1 X99.09 Y75.72 E.52892
G1 X98.553 Y75.72 E.01697
G1 X110.93 Y88.097 E.55292
G1 X110.93 Y88.634 E.01697
G1 X98.016 Y75.72 E.57692
G1 X97.478 Y75.72 E.01697
G1 X110.93 Y89.172 E.60092
G1 X110.93 Y89.709 E.01697
G1 X96.941 Y75.72 E.62492
G1 X96.404 Y75.72 E.01697
G1 X110.93 Y90.246 E.64892
G1 X110.93 Y90.783 E.01697
G1 X95.867 Y75.72 E.67292
G1 X95.329 Y75.72 E.01697
G1 X110.93 Y91.321 E.69692
G1 X110.93 Y91.858 E.01697
G1 X106.755 Y87.683 E.18651
G1 X106.597 Y87.364 E.01125
G1 X106.219 Y86.804 E.02133
G1 X105.773 Y86.3 E.02125
G1 X105.266 Y85.858 E.02124
G1 X104.764 Y85.522 E.0191
G1 X104.419 Y85.346 E.01223
G1 X94.792 Y75.72 E.43004
G1 X94.255 Y75.72 E.01697
G1 X103.523 Y84.988 E.41404
G1 X102.839 Y84.842 E.0221
M73 P3 R35
G1 X93.718 Y75.72 E.40749
G1 X93.18 Y75.72 E.01697
G1 X102.26 Y84.8 E.40562
G1 X102.065 Y84.787 E.00617
G1 X101.734 Y84.811 E.01049
G1 X92.643 Y75.72 E.40611
G1 X92.106 Y75.72 E.01697
G1 X101.25 Y84.864 E.40848
G1 X100.802 Y84.953 E.01443
G1 X91.569 Y75.72 E.41246
G1 X91.031 Y75.72 E.01697
G1 X100.398 Y85.086 E.41842
G1 X100.006 Y85.232 E.0132
G1 X90.494 Y75.72 E.42492
G1 X89.957 Y75.72 E.01697
G1 X99.65 Y85.413 E.43302
G1 X99.308 Y85.608 E.01244
G1 X89.42 Y75.72 E.44173
G1 X88.882 Y75.72 E.01697
G1 X98.986 Y85.823 E.45134
G1 X98.693 Y86.068 E.01205
G1 X88.345 Y75.72 E.46227
G1 X87.808 Y75.72 E.01697
G1 X98.409 Y86.321 E.47357
G1 X98.157 Y86.606 E.01202
G1 X87.271 Y75.72 E.4863
G1 X86.733 Y75.72 E.01697
G1 X97.915 Y86.902 E.49952
G1 X97.699 Y87.222 E.01222
G1 X86.196 Y75.72 E.51384
G1 X85.659 Y75.72 E.01697
G1 X97.504 Y87.564 E.52913
G1 X97.326 Y87.924 E.01267
G1 X85.122 Y75.72 E.54518
G1 X84.584 Y75.72 E.01697
G1 X97.178 Y88.314 E.5626
G1 X97.049 Y88.722 E.01352
G1 X84.047 Y75.72 E.58082
G1 X83.51 Y75.72 E.01697
G1 X96.96 Y89.17 E.60084
G1 X96.912 Y89.659 E.01552
G1 X82.973 Y75.72 E.62268
G1 X82.435 Y75.72 E.01697
G1 X96.9 Y90.184 E.64615
G1 X96.948 Y90.769 E.01856
G1 X81.898 Y75.72 E.6723
G1 X81.361 Y75.72 E.01697
G1 X97.372 Y91.731 E.71527
M204 P1000
G1 E-2.24 F4200
;WIPE_START
G1 F7200
G1 X96.209 Y90.568 E-.912
;WIPE_END
G1 E-.048 F4200
G1 Z.4 F720
G1 X106.84 Y88.305 F9000
G1 Z.2 F720
G1 E3.2 F2400
M204 P800
G1 F1200
G1 X110.93 Y92.395 E.18273
G1 X110.93 Y92.932 E.01697
G1 X107.258 Y89.26 E.16404
G1 X107.302 Y89.842 E.01842
G1 X110.93 Y93.47 E.16206
G1 X110.93 Y94.007 E.01697
G1 X107.287 Y90.363 E.16276
G1 X107.236 Y90.85 E.01545
M73 P4 R35
G1 X110.93 Y94.544 E.16502
G1 X110.93 Y95.081 E.01697
G1 X107.147 Y91.298 E.169
G1 X107.016 Y91.704 E.01348
G1 X110.93 Y95.619 E.17487
G1 X110.93 Y96.156 E.01697
G1 X106.866 Y92.092 E.18153
G1 X106.689 Y92.452 E.01267
G1 X110.93 Y96.693 E.18948
G1 X110.93 Y97.23 E.01697
G1 X106.492 Y92.792 E.19827
G1 X106.275 Y93.112 E.01222
G1 X110.93 Y97.768 E.20795
G1 X110.93 Y98.305 E.01697
G1 X106.032 Y93.407 E.21881
